X: 1
T: One That Was Lost, The
M: 6/8
L: 1/8
R: jig
K: Edor
|: f | edB BAF | E2 D EFA | BAF D2 F |AFA def |
edB BAF | E2 D EFA | dfb afd | efe e2 :|
d | Bee efa | baf edB | ~d3 Bdd |AFA dcd |
Bee efa | baf edB | dfb afd |efe e2 d |
Bee efa | baf edB | ~d3 Bdd |AFA def |
{f}g2 e fed | BeB dBA | dfb afd |efe e2 ||
